X: 591
T: Nao wugeng
L: 1/8
M: 2/4
K: A
A B e c [I:setbarnb 1]| 
B2B2 | 
c B A F | 
c B A F | 
A B A F | 
E4 | 
AA2B | 
c e c B | 
A B A F | 
E4 | 
E F E F | 
A B c B | 
A2F E | 
D F E A, | 
B,4 |]

@@@ Tune index: 9465
